X:1
T:Washed in the Blood of My Redeemer
T:Washed in the Blood of My Redeemer
T:William James Kirkpatrick
T:Frances Jane (Fanny) Crosby, 1887
T:Public Domain Courtesy of the Cyber Hymnal™
T:Public Domain Courtesy of the Cyber Hymnal™
C:William James Kirkpatrick
Z:Public Domain
Z:Courtesy of the Cyber Hymnal™
%%score ( 1 2 ) ( 3 4 )
L:1/8
Q:1/4=110
M:4/4
K:G
V:1 treble 
V:2 treble 
V:3 bass 
V:4 bass 
V:1
 [DG][DA] | [GB]2 [Gd]2 [Gd]2 [GB][FA] | [GB]2 [DG]2 [EG]2 [DF][CE] | %3
w: 1.~I will|praise the Lord for His|love to me, I am|
w: 2.~I am|saved by grace, and to|Him brought near, I am|
w: 3.~What a|con- stant peace in my|heart I feel, I am|
w: 4.~I will|lift my voice while on|earth I stay, I am|
 [B,D]2 [B,D]>[B,D] [CE][CD][CE][CF] | [CA]4 [B,G]2 [DG][DA] | [GB]2 [Gd]2 [Gd]2 [GB][FA] | %6
w: washed in the blood of my Re-|deem- er. In the|fount that flows from the|
w: washed in the blood of my Re-|deem- er. I would|sing so loud that the|
w: washed in the blood of my Re-|deem- er. There’s a|ho- ly joy I can|
w: washed in the blood of my Re-|deem- er. Then my|soul shall sing in the|
 [GB]2 [DG]2 [EG]2 [DF][CE] | [B,D]2 [B,D]>[B,D] [CE][CD][CE][CF] | [CA]4 [B,G]2 ||"^Refrain" z2 | %10
w: cross so free, I am|washed in the blood of my Re-|deem- er.||
w: world might hear, I am|washed in the blood of my Re-|deem- er.||
w: ne’er re- veal, I am|washed in the blood of my Re-|deem- er.||
w: realms of day, I am|washed in the blood of my Re-|deem- er.||
 [DB]2 [Gd]2 [Gd]2 [Gd]2 | [GB]>[GB] [GB]>[DA] [DG]2 [DF][DG] | [FA]2 [Fd]2 [Fd]2 [FB]>[FA] | %13
w: |||
w: Glo- ry, glo- ry,|glo- ry to the Lamb, I am|saved from sin and He|
w: |||
w: |||
 [EG][EG][EF][EG] !fermata![FA]2 (GA) | [GB]2 [Gd]2 [Gd]2 [Gd]2 | %15
w: ||
w: makes me what I am; Oh, *|glo- ry, glo- ry,|
w: ||
w: ||
 [GB]>[GB] [GB]>[DA] [DG]2 [DF][CE] | [B,D]2 [B,D]>[B,D] [CE][CD][CE][CF] | %17
w: ||
w: glo- ry to the Lamb, I am|washed in the blood of my Re-|
w: ||
w: ||
 [CA]4 !fermata![B,G]2 |] %18
w: |
w: deem- er.|
w: |
w: |
V:2
 x2 | x8 | x8 | x8 | x8 | x8 | x8 | x8 | x6 || x2 | x8 | x8 | x8 | x6 G2 | x8 | x8 | x8 | x6 |] %18
V:3
 [G,B,][G,C] | [G,D]2 [G,B,]2 [G,B,]2 [G,D][G,D] | [G,D]2 [G,B,]2 [C,C]2 [C,G,][C,G,] | %3
 [D,G,]2 [D,G,]>[D,G,] [D,F,][D,F,][D,G,][D,A,] | [D,F,]4 [G,,G,]2 [G,B,][G,C] | %5
 [G,D]2 [G,B,]2 [G,B,]2 [G,D][G,D] | [G,D]2 [G,B,]2 [C,C]2 [C,G,][C,G,] | %7
 [D,G,]2 [D,G,]>[D,G,] [D,F,][D,F,][D,G,][D,A,] | [D,F,]4 [G,,G,]2 || z2 | %10
 G,2 [G,B,]2 [G,B,]2 [G,B,]2 | [G,D]>[G,D] [G,D]>[G,C] [G,B,]2 [D,A,][D,B,] | %12
 [D,A,]2 [D,A,]2 [D,A,]2 [D,D]>[D,C] | [E,B,][E,B,][A,,^C][A,,C] !fermata![D,D]2 (B,C) | %14
 [G,D]2 [G,B,]2 [G,B,]2 [G,B,]2 | [G,D]>[G,D] [G,D]>[G,C] [G,B,]2 [B,,G,][C,G,] | %16
 [D,G,]2 [D,G,]>[D,G,] [D,F,][D,F,][D,G,][D,A,] | [D,F,]4 !fermata![G,,G,]2 |] %18
V:4
 x2 | x8 | x8 | x8 | x8 | x8 | x8 | x8 | x6 || x2 | G,2 x6 | x8 | x8 | x6 G,2 | x8 | x8 | x8 | %17
 x6 |] %18

